src/icons/navicon-close.svg

<svg xmlns="http://www.w3.org/2000/svg" width="512" height="512" viewBox="0 0 512 512">
    <path d="M216 233.5h223v32H216v-32zm0-96h223v32H216v-32zm0 192h223v32H216v-32zM143 151l-1.4 1.2-101 87.8c-3.4 3-5.6 7.4-5.6 12.4s2.2 9.4 5.6 12.4l100.9 87.8 1.7 1.5c1.6 1.1 3.6 1.7 5.6 1.7 5.6 0 10.2-4.8 10.2-10.7V159.9c0-5.9-4.6-10.7-10.2-10.7-2.1 0-4.1.7-5.8 1.8z"/>
</svg>

<?xml version="1.0" encoding="UTF-8"?>
<svg width="512px" height="512px" viewBox="0 0 512 512" version="1.1" xmlns="http://www.w3.org/2000/svg" xmlns:xlink="http://www.w3.org/1999/xlink">
    <!-- Generator: Sketch 62 (91390) - https://sketch.com -->
    <title>navicon-close</title>
    <desc>Created with Sketch.</desc>
    <g id="navicon-close" stroke="none" stroke-width="1" fill="none" fill-rule="evenodd">
        <path d="M216,233.5 L439,233.5 L439,265.5 L216,265.5 L216,233.5 Z M216,137.5 L439,137.5 L439,169.5 L216,169.5 L216,137.5 Z M216,329.5 L439,329.5 L439,361.5 L216,361.5 L216,329.5 Z M143,151 L141.6,152.2 L40.6,240 C37.2,243 35,247.4 35,252.4 C35,257.4 37.2,261.8 40.6,264.8 L141.5,352.6 L143.2,354.1 C144.8,355.2 146.8,355.8 148.8,355.8 C154.4,355.8 159,351 159,345.1 L159,159.9 C159,154 154.4,149.2 148.8,149.2 C146.7,149.2 144.7,149.9 143,151 L143,151 Z" id="Shape" fill="#000000" fill-rule="nonzero"></path>
    </g>
</svg>
